proprietary/assets/icons/gebruiksvoorwerpen/hangslot-dicht-met-hart-erop.svg

<svg height="64" viewBox="0 0 64 64" width="64" xmlns="http://www.w3.org/2000/svg"><path d="m0 0h64v64h-64z" fill="none"/><path d="m51.0909 29h-1.0909v-5c0-9.9248-8.0747-18-18-18s-18 8.0752-18 18v3.4921c1.3.2509 5.4673 1.0579 5.7349 1.1438.3172.1018.2708.3079.2499.3641h-7.0757c-1.0544 0-1.9091.8547-1.9091 1.9091v23.6039c0 .9282.6664 1.7191 1.5804 1.8807 3.0444.5383 10.2403 1.6063 19.4196 1.6063s16.3752-1.068 19.4196-1.6064c.914-.1616 1.5804-.9525 1.5804-1.8807v-23.6038c0-1.0544-.8547-1.9091-1.9091-1.9091zm-29.0909-5c0-5.5137 4.4858-10 10-10s10 4.4863 10 10v3.4921c1.3.2509 5.4673 1.0579 5.7349 1.1438.3172.1018.2708.3079.2499.3641h-25.9848zm10.3837 27.2563c-.2384.1248-.5291.1248-.7675 0-9.0766-4.7544-9.3348-13.2939-5.4622-15.015 3.9264-1.7451 5.846 2.0067 5.846 2.0067s1.9196-3.7519 5.8459-2.0068c3.8726 1.7212 3.6144 10.2607-5.4622 15.0151z"/></svg>

<?xml version="1.0" encoding="utf-8"?>
<!-- Generator: Adobe Illustrator 19.1.0, SVG Export Plug-In . SVG Version: 6.00 Build 0)  -->
<svg version="1.2" baseProfile="tiny" xmlns="http://www.w3.org/2000/svg" xmlns:xlink="http://www.w3.org/1999/xlink" x="0px"
	 y="0px" width="64px" height="64px" viewBox="0 0 64 64" xml:space="preserve">
<g id="Box">
	<rect fill="none" width="64" height="64"/>
</g>
<g id="Icon">
	<path d="M51.0909,29H50v-5c0-9.9248-8.0747-18-18-18s-18,8.0752-18,18v3.4921c1.3,0.2509,5.4673,1.0579,5.7349,1.1438
		c0.3172,0.1018,0.2708,0.3079,0.2499,0.3641h-7.0757C11.8547,29,11,29.8547,11,30.9091v23.6039
		c0,0.9282,0.6664,1.7191,1.5804,1.8807C15.6248,56.932,22.8207,58,32,58s16.3752-1.068,19.4196-1.6064
		C52.3336,56.232,53,55.4411,53,54.5129V30.9091C53,29.8547,52.1453,29,51.0909,29z M22,24c0-5.5137,4.4858-10,10-10
		s10,4.4863,10,10v3.4921c1.3,0.2509,5.4673,1.0579,5.7349,1.1438c0.3172,0.1018,0.2708,0.3079,0.2499,0.3641H22V24z
		 M32.3837,51.2563c-0.2384,0.1248-0.5291,0.1248-0.7675,0c-9.0766-4.7544-9.3348-13.2939-5.4622-15.015
		C30.0804,34.4962,32,38.248,32,38.248s1.9196-3.7519,5.8459-2.0068C41.7185,37.9624,41.4603,46.5019,32.3837,51.2563z"/>
</g>
</svg>
